X:1
T:Duo Seraphin
T:Richard Dering 
T:(1580 - 1630)
T:Dering worked in London, Brussels, Venice and Rome.
T:Duo Seraphin
T:Cantica Sacra, London, M DC LXII
T:Wim Looyestijn 2015. May be freely copied for non-commercial use.
T:Wim Looyestijn 2015. May be freely copied for non-commercial use.
T:Wim Looyestijn 2015. May be freely copied for non-commercial use.
C:Richard Dering
Z:Wim Looyestijn 2015. May be freely copied for non-commercial use.
%%score [ 1 2 ] 3
L:1/8
Q:1/4=90
M:2/2
K:F
V:1 treble nm="MusicXML Part"
V:2 treble nm="MusicXML Part"
V:3 bass nm="BC" snm="Bc"
V:1
 B3 A B2 c2 | A8 | G2 A2 B4- | B4 A4 | B8 | z8 | z4 d4- | d4 c4- | c4 =B4 | G6 AB | ^F2 G4 F2 | %11
w: Du- o se- ra-|phin,|du- o se-|* ra-|phin||cla-|* ma-|* bant|al- ter ad|al- te- *|
 G8 | z2 c4 =B2 | z8 | z2 _e4 cB | A2 B4 A2 | B8 | z4 G4- | G4 ^F4 | z8 | z8 | z8 | z8 | z8 | z8 | %25
w: rum,|al- ter,||al- ter ad|al- te- *|rum:|Sanc-|* tus,|||||||
 A8 | G8 | z2 d3 c B2 | c2 A2 d4- | d4 ^c4 | d8 | z4 G4- | G4 G4 | ^F8 | z8 | z8 | d6 D2 | E8 | %38
w: sac-|tus|Do- mi- nus|De- us sa-|* ba-|oth,|ple-|* na|est|||om- nis|ter-|
 D8 | z8 | z8 | z2 d3 c A2 | B>AG>A B>cd>e | ^c2 d4 c2 | d4 z4 | z2 d3 c A2 | B>AB>c d2 cB | A8 | %48
w: ra.|||Glo- ri- a|e- * * * * * * *||jus,|glo- ri- a|e- * * * * * *|jus,|
 G8 | z4 B4- | B4 B4 | A8 | d6 D2 | E8 | D8 | z8 | z2 d3 c A2 | B>AG>A B>cd>c | A2 B4 A2 | B4 z4 | %60
w: |ple-|* na|est|om- nis|ter-|ra.||Glo- ri- a|e- * * * * * * *||jus,|
 z8 | z8 | z2 d3 c A2 | BG B3 A ^F2 | G>FG>A B2 A>G | ^F2 G4 F2 | G16 |] %67
w: ||glo- ri- a|e- jus, glo- ri- a|e- * * * * * *||jus.|
V:2
 G3 ^F G2 A2 | ^F8 | B2 c2 d4 | c6 c2 | B4 d4- | d4 c4- | c4 =B2 B2 | _e8 | d8 | z4 B4- | %10
w: Du- o se- ra-|phin,|du- o se-|ra- phin|cla- ma-||* bant, cla-|ma-|bant|al-|
 B2 cd A3 A | G8 | z8 | z2 c4 =B2 | z4 z2 _e2- | e2 dB c3 c | B8 | z4 B4- | B4 A4 | z4 d4- | %20
w: * ter ad al- te-|rum,||al- ter,|al-|* ter ad al- te-|rum:|Sanc-|* tus,|sac-|
 d4 A4 | z2 B3 A G2 | A4 B4 | c6 c2 | B8 | z8 | z8 | z8 | z8 | z8 | z8 | z4 B4- | B4 B4 | A8 | %34
w: * tus|Do- mi- nus|De- us|sa- ba-|oth,|||||||ple-|* na|est|
 d6 D2 | E8 | D8 | z8 | z2 d3 c A2 | B>AG>A B>cd>B | A2 B4 A2 | B4 z4 | z8 | z8 | z2 d3 c A2 | %45
w: om- nis|ter-|ra.||Glo- ri- a|e- * * * * * * *||jus,|||glo- ri- a|
 BG B3 A ^F2 | G>FG>A B2 AG | ^F2 G4 F2 | G8 | z4 G4- | G4 G4 | ^F8 | z8 | z8 | d6 D2 | E8 | D8 | %57
w: e- jus, glo- ri- a|e- * * * * * *||jus,|ple-|* na|est|||om- nis|ter-|ra.|
 z8 | z8 | z2 d3 c A2 | B>AG>A B>cd>e | ^c2 d4 c2 | d4 z4 | z2 d3 c A2 | B>AB>c d2 cB | A8 | G16 |] %67
w: ||Glo- ri- a|e- * * * * * * *||jus,|glo- ri- a|e- * * * * * *||jus.|
V:3
 G,2 D,2 G,2 G,,2 | D,6 C,2 | B,,8 | F,4 F,,4 | B,,8 | _E,6 F,2 | G,8 | C,8 | G,8 | _E,6 F,G, | %10
w: ||||||||||
 D,4 D,,4 | G,,8 | C,4 G,4 | C,4 G,,4 | C,8 | F,4 F,,4 | B,,8 | _E,4 B,,2 C,2 | D,8 | D,6 E,2 | %20
w: ||||||||||
 ^F,8 | G,8 | F,4 B,,4 | F,,8 | B,,6 C,2 | D,4 D,,4 | G,,8 | G,8 | F,6 G,2 | A,4 A,,4 | D,8 | G,8 | %32
w: ||||||||||||
 G,,8 | D,8- | D,8 | A,,8 | D,8 | A,,8 | D,8 | G,8 | F,4 F,,4 | B,,4 D,4 | G,,8 | A,,8 | D,8 | %45
w: ||||# 3||# 3||||||# 3|
 G,,4 D,4 | G,4 B,,2 C,2 | D,4 D,,4 | G,,8 | G,8 | G,,8 | D,8- | D,8 | A,,8 | D,8 | A,,8 | D,8 | %57
w: ||||||||||||
 G,8 | F,4 F,,4 | B,,4 D,4 | G,,8 | A,,8 | D,8 | G,,4 D,4 | G,4 B,,2 C,2 | D,4 D,,4 | G,,16 |] %67
w: ||||||||||

